X:11
T:An sgeul aoibhinn
Z:Jack Campin, http://www.campin.me.uk/
B:Captain Eoghan Anderson: Measan Milis as an Lios (The Sweet Lapdog of Lismore), 1925
F:http://www.campin.me.uk/Music/Lismore.abc
I:last edit 17-12-2013
N:related to "The Wark of the Weavers"
M:4/4
L:1/8
Q:1/4=100
K:F
C|CC  CD  F2 GA |G>F FD  C3
A|AA  FA  c2 c>A|GF  F>G A3
c|d>d dc  f2 f>A|AG  F>A G3
z|C>C C>D D2 C>A|G4      F3|]